X:1
T:Title
%%score ( 1 2 ) { 3 | ( 4 5 ) }
L:1/8
Q:1/4=97
M:4/4
K:F
V:1 treble nm="Grand Piano, Soprano"
V:2 treble 
V:3 bass nm="Choir Pad, From the Cyber Hymnal™"
V:4 bass 
V:5 bass 
V:1
 C>C [CF]2 [CF][CG] [FA]2 | [A,C]>[A,C] [B,D]2 [B,D][B,D] [DB]2 | CC [CF]2 [CF][CF] [CE]2 | %3
w: By~D.~R.~Mansfield * * * * *|||
 [CF]>[CF] [EG]4 z2 | C2 [FA]2 [FA]>[FA] [Fc]2 | [CF]>[CF] [EG]2 [EG]>[FA] [DB]2 | %6
w: |||
 [CE][CE] [CF]2 [CF][FG] [FA]2 | [EG]>[EG] F4 z2 | [Ac]>[GB] [FA]<[FA] [CG][CF] [B,D]<[B,D] | %9
w: |||
 z [DB] [DB]2 [B,D][B,D] [B,D]<[A,C] | z C [CF]<[CF] [CF][CF] [CF]<[CE] | [CF][FA] [EG]6 | %12
w: |||
 [Ec]>[EB] [FA]<[FA] [CG][CF] D<D | [DB]>[DB] [DB][B,D] [B,D]>[B,D] [B,D]<[A,C] | %14
w: ||
 z C [CF]<[CF] [CF][CF] [CE]<[CE] | z2 F6- | F6 z2 |] %17
w: |||
V:2
 x8 | x8 | x8 | x8 | x8 | x8 | x8 | x8 | x8 | x8 | x8 | x8 | x8 | x8 | x8 | [CD][CE] C2 DD C2- | %16
 C6 z2 |] %17
V:3
 A,>A, A,2 A,B, C2 | F,>F, F,2 F,F, F,2 | A,A, A,2 A,A, B,2 | A,>A, C4 z2 | A,2 C2 C>C A,2 | %5
 A,>A, C2 C>C[K:bass] G,2 | G,G, A,2 A,B, C2 | C>B, A,4 z2 | C>C C<C B,[K:bass]A, B,<F, | %9
 z F, F,2 F,F, F,<F, | z A, A,<A, A,A, A,<B, | A,[K:treble]C C6 | G,>C C<C[K:bass] E,F, F,<F, | %13
 F,>F, F,F, F,>F, F,<F, | z A, A,<A, A,A, G,<G, | B,B, A,2 B,B, A,2- | A,6 z2 |] %17
V:4
 F,>F, F,2 F,F, F,2 | z2 B,,2 B,,B,, B,,2 | F,F, F,2 F,F, G,2 | F,>F, C,4 z2 | F,2 F,2 F,>F, F,2 | %5
 F,>F, C,2 C,>A,, G,,2 | C,C, F,2 F,F, F,2 | C,>C, F,4 z2 | F,>F, F,<F, F,F, B,,<B,, | %9
 z B,, B,,2 B,,B,, F,,<F,, | z F, F,<F, F,F, F,<G, | z F, C,6 | %12
 C,>C, [F,,F,]<[F,,F,] G,,A,, B,,<B,, | B,,>B,, B,,B,, B,,>B,, F,,<F,, | z F, F,<F, F,F, C,<C, | %15
 C,C, F,6 | z8 |] %17
V:5
 x8 | x8 | x8 | x8 | x8 | x8 | x8 | x8 | x8 | x8 | x8 | x8 | x8 | x8 | x8 | z2 F,,6- | F,,6 z2 |] %17

